X: 34548
T: Ring Around The Moon, The
R: reel
M: 4/4
K: Gmajor
|:B3A G3E|DGBG DG (3Bcd|eged ed (3Bcd|e2 dg edBA|
ABBA G3E|DGBG DGBd|e3d efga|gedc BG G2:|
|:g3d B3d|g2 fg egdB|eAAG A2 (3Bcd|eA A2 BG (3Bcd|
gagd B3d|g2 fg egdB|e3d efga|gedc BG G2:|

